X: 13922
T: Foxhunter, The
R: slip jig
M: 9/8
K: Dmajor
B3 B2A G2A|B2E E2D G2A|Bed B2A F2A|d2D D2F E2D:|
|:f3 ~f2a g2e|~f3 f2d e2f|d2f f2a g2b|a2f d2f e2d:|
|:F3 ~F2A G2E|~F3 F2D E2D|D2F A2F G2B|A2F D2F E2D:|

